packages/core/src/svgs/tokens/branded/QUICK.svg

<svg width="24" height="24" viewBox="0 0 24 24" fill="none" xmlns="http://www.w3.org/2000/svg">
<path fill-rule="evenodd" clip-rule="evenodd" d="M20.9198 15.6918C20.9257 13.2647 19.8052 9.59291 15.1951 8.41822C16.6928 8.78586 19.4799 9.59234 20.5775 10.3653C19.7363 9.21468 17.2022 6.91234 13.7934 6.91234C14.4281 6.38471 15.5981 5.19412 15.9887 4.06765C17.6139 4.8383 18.9866 6.05503 19.9467 7.576C20.9068 9.09697 21.4149 10.8596 21.4116 12.6582C21.4127 13.6893 21.2466 14.7138 20.9198 15.6918ZM2.58813 12.7106V12.6582C2.58813 7.42176 6.80165 3.17648 11.9998 3.17648C13.1087 3.17648 14.1728 3.36942 15.1605 3.72413C14.9134 4.12529 14.2487 4.87529 12.8876 5.74764C12.8716 5.52235 12.7746 4.98294 12.517 4.62942C12.4658 4.8747 12.0986 5.49118 11.0463 5.99353C10.784 6.11882 10.5264 6.23176 10.2817 6.33823C9.30455 6.76646 8.55105 7.09587 8.62105 7.73998C8.69164 8.3841 9.16987 8.55174 9.40049 8.55469C9.19576 8.61646 8.74046 8.67998 8.55341 8.43704C8.26752 8.76704 7.57929 9.42174 7.11165 9.39822C6.52695 9.3688 6.4293 8.75116 6.62459 8.43704C5.83578 8.93704 4.44461 10.4135 5.19284 12.313C5.9993 11.8223 8.07929 10.9235 9.94347 11.2494C10.4822 11.3435 10.9081 11.4017 11.254 11.4488C12.4028 11.6047 12.6681 11.6411 13.2752 12.4911C14.0652 13.597 13.3063 17.6329 8.55341 17.9822C5.14872 18.2323 3.27814 14.9235 2.58813 12.7106Z" fill="#4289C7"/>
<path d="M3.66943 12.3323C3.66943 7.82648 7.29529 4.17355 11.7677 4.17355C26.6599 4.79061 7.24471 25.6623 3.66943 12.3323Z" fill="url(#paint0_linear_364_13073)"/>
<path fill-rule="evenodd" clip-rule="evenodd" d="M5.78533 11.8447C5.76488 11.8705 5.74527 11.897 5.72651 11.9242C7.55591 11.6241 11.4795 11.3024 12.5007 12.4711C13.5218 13.64 13.2159 14.5024 12.9259 15.2023C12.1165 17.1553 5.73769 19.8964 2.59182 12.6111C2.47299 15.8076 5.21123 22.4646 12.7212 21.973C22.2682 21.3482 19.3236 8.94356 11.1612 9.51356L11.0917 9.52826C11.9389 9.9182 12.4701 10.5636 12.6636 10.927C9.40764 10.1359 6.89063 11.147 5.78533 11.8447Z" fill="#191E44"/>
<path d="M12.2465 12.2124C13.9795 13.3635 13.7465 15.1706 13.413 15.9299C13.8035 15.5076 14.4165 15.2265 14.6748 15.1382C15.0912 15.2823 15.5794 16.1481 14.1982 18.4599C12.8177 20.7717 9.93362 21.0699 8.66357 20.9305L9.49715 21.494L15.6865 19.9947L16.9717 14.4305L12.2465 12.1524V12.2124Z" fill="#0C1D63"/>
<path d="M8.08874 13.1859C7.48992 13.1306 6.17992 12.8012 5.73169 11.9234C6.72697 11.2717 9.51691 10.3 12.7181 11.6276C12.674 11.4429 12.5063 11.0235 12.1846 10.8194C12.2958 10.8382 12.5475 10.8883 12.6699 10.9336C12.5675 10.7635 12.294 10.3694 12.0147 10.1546C14.1193 10.447 18.3281 12.0982 18.3281 16.3676C18.3281 20.637 15.0281 21.8417 13.3787 21.9105C12.0163 22.1382 8.70873 22.0682 6.16757 20.0282C6.10723 19.9855 6.0502 19.9383 5.99699 19.8869L6.16757 20.0282C6.69462 20.407 7.98992 20.9664 10.1394 20.9664C13.1864 20.9664 16.9122 17.9081 15.4481 14.5628C15.4282 14.8788 15.0958 15.6611 13.9246 16.2652C14.3376 14.8458 14.1534 11.9682 10.1158 11.8164C9.04991 11.7499 7.15286 11.9306 8.08874 13.1859Z" fill="#262F72"/>
<path d="M18.0144 9.66938C16.799 8.87174 15.6885 8.51115 15.0608 8.38174C17.1178 8.6288 18.1078 9.06998 18.3461 9.25939C18.2513 9.0586 18.1402 8.86581 18.0144 8.68291C18.9237 9.00408 20.1242 9.95932 20.6114 10.3965C19.9208 10.0082 18.5919 9.74996 18.0144 9.66938Z" fill="#161A3D"/>
<path d="M12.796 6.77175C12.6661 7.32468 12.2479 7.8435 12.0554 8.0335C15.9478 6.32881 16.4854 3.30059 16.2678 2C15.9795 3.10588 15.1871 4.30293 14.8266 4.76352L15.4784 4.61C14.6637 5.84941 13.3507 6.56763 12.796 6.77175Z" fill="#18214A"/>
<path d="M10.263 7.3347C9.68115 7.61293 9.5918 8.01941 9.61938 8.18823C11.277 8.25587 11.8241 7.10234 11.89 6.51764C11.6388 6.73353 10.99 6.98646 10.263 7.3347Z" fill="#253155"/>
<path fill-rule="evenodd" clip-rule="evenodd" d="M9.8917 8.18818C10.1858 8.10112 10.51 7.93935 10.7241 7.65758C10.9094 7.41407 11.024 7.16465 11.0912 6.9523C11.0206 6.98524 10.947 7.01818 10.8711 7.05288C10.6806 7.13994 10.4748 7.23289 10.263 7.33465C9.68115 7.61288 9.5918 8.01936 9.61938 8.18818C9.71354 8.1923 9.80413 8.19171 9.8917 8.18818Z" fill="#5D98CE"/>
<path d="M6.58178 9.72644C6.26236 9.71409 5.9506 10.3353 5.83472 10.6476C6.41059 10.0699 6.64236 10.2352 6.68648 10.39C6.78412 10.1741 6.90059 9.73879 6.58178 9.72644Z" fill="#54A2CC"/>
<path fill-rule="evenodd" clip-rule="evenodd" d="M6.16968 10.0118C6.30968 9.92406 6.45496 9.86765 6.55319 9.91171C6.64202 9.9511 6.71496 10.0383 6.77085 10.1341C6.81319 9.9371 6.79731 9.73528 6.58144 9.72646C6.43732 9.72057 6.29378 9.84473 6.16968 10.0118Z" fill="#3A415A"/>
<defs>
<linearGradient id="paint0_linear_364_13073" x1="6.63579" y1="4.66685" x2="11.9092" y2="10.3323" gradientUnits="userSpaceOnUse">
<stop stop-color="white" stop-opacity="0.41"/>
<stop offset="1" stop-color="white" stop-opacity="0"/>
</linearGradient>
</defs>
</svg>

<svg xmlns="http://www.w3.org/2000/svg" width="24" height="24" fill="none" viewBox="0 0 24 24">
    <path fill="#4289C7" fill-rule="evenodd" d="M20.92 15.692c.006-2.427-1.115-6.1-5.725-7.274 1.498.368 4.285 1.174 5.383 1.947-.842-1.15-3.376-3.453-6.785-3.453.635-.527 1.805-1.718 2.196-2.844a9.49 9.49 0 0 1 5.423 8.59 9.5 9.5 0 0 1-.492 3.034M2.588 12.71v-.053c0-5.236 4.214-9.482 9.412-9.482 1.109 0 2.173.193 3.16.548-.247.401-.911 1.151-2.272 2.024-.016-.226-.113-.765-.371-1.119-.051.246-.418.862-1.47 1.365q-.396.186-.765.344c-.977.428-1.731.758-1.66 1.402.07.644.548.812.778.815-.204.061-.66.125-.847-.118-.285.33-.974.985-1.441.961-.585-.03-.683-.647-.487-.961-.79.5-2.18 1.977-1.432 3.876.806-.49 2.886-1.39 4.75-1.064.54.095.965.153 1.311.2 1.149.156 1.414.192 2.021 1.042.79 1.106.031 5.142-4.722 5.491-3.404.25-5.275-3.058-5.965-5.271" clip-rule="evenodd"/>
    <path fill="url(#QUICK__a)" d="M3.67 12.332c0-4.506 3.625-8.158 8.098-8.158 14.892.617-4.523 21.488-8.099 8.158"/>
    <path fill="#191E44" fill-rule="evenodd" d="M5.785 11.845q-.03.038-.058.08c1.829-.3 5.752-.623 6.774.546 1.02 1.169.715 2.031.425 2.731-.81 1.953-7.188 4.694-10.334-2.59-.119 3.196 2.62 9.853 10.13 9.361 9.546-.625 6.602-13.03-1.56-12.46l-.07.015c.847.39 1.378 1.036 1.572 1.399-3.256-.791-5.773.22-6.879.918" clip-rule="evenodd"/>
    <path fill="#0C1D63" d="M12.247 12.212c1.733 1.152 1.5 2.959 1.166 3.718.39-.422 1.003-.703 1.262-.792.416.144.904 1.01-.477 3.322-1.38 2.312-4.264 2.61-5.534 2.47l.833.564 6.19-1.5 1.285-5.563-4.726-2.279z"/>
    <path fill="#262F72" d="M8.089 13.186c-.6-.055-1.91-.385-2.357-1.263.995-.651 3.785-1.623 6.986-.295-.044-.185-.212-.604-.533-.809.11.02.362.07.485.115-.102-.17-.376-.565-.655-.78 2.104.293 6.313 1.944 6.313 6.214 0 4.269-3.3 5.474-4.95 5.543-1.362.227-4.67.157-7.21-1.883a1.5 1.5 0 0 1-.171-.141l.17.141c.528.379 1.823.938 3.972.938 3.047 0 6.773-3.058 5.31-6.403-.02.316-.353 1.098-1.524 1.702.413-1.42.228-4.297-3.81-4.449-1.065-.066-2.962.115-2.026 1.37"/>
    <path fill="#161A3D" d="M18.014 9.67c-1.214-.799-2.324-1.16-2.953-1.289 2.057.247 3.047.688 3.285.877a4 4 0 0 0-.332-.576c.91.321 2.11 1.276 2.597 1.713-.69-.388-2.02-.646-2.597-.727"/>
    <path fill="#18214A" d="M12.796 6.772c-.13.553-.548 1.071-.74 1.261C15.947 6.33 16.485 3.302 16.267 2c-.289 1.106-1.08 2.303-1.441 2.764l.651-.154c-.814 1.24-2.127 1.958-2.682 2.162"/>
    <path fill="#253155" d="M10.263 7.335c-.582.278-.671.684-.644.853 1.658.068 2.205-1.086 2.271-1.67-.251.216-.9.468-1.627.817"/>
    <path fill="#5D98CE" fill-rule="evenodd" d="M9.892 8.188c.294-.087.618-.249.832-.53.185-.244.3-.493.367-.706q-.106.05-.22.1c-.19.088-.396.18-.608.283-.582.278-.671.684-.644.853q.142.006.273 0" clip-rule="evenodd"/>
    <path fill="#54A2CC" d="M6.582 9.726c-.32-.012-.631.61-.747.922.576-.578.807-.413.851-.258.098-.216.215-.651-.104-.664"/>
    <path fill="#3A415A" fill-rule="evenodd" d="M6.17 10.012c.14-.088.285-.144.383-.1.089.04.162.126.218.222.042-.197.026-.399-.19-.408-.144-.005-.287.119-.411.286" clip-rule="evenodd"/>
    <defs>
        <linearGradient id="QUICK__a" x1="6.636" x2="11.909" y1="4.667" y2="10.332" gradientUnits="userSpaceOnUse">
            <stop stop-color="#fff" stop-opacity=".41"/>
            <stop offset="1" stop-color="#fff" stop-opacity="0"/>
        </linearGradient>
    </defs>
</svg>
